X: 1
T: Aldavaloch
T: O'er the Moor Amang the Heather
O: 1799
R: air
S: printed page in the Concord Slow Scottish Session collection
Z: 2015 John Chambers <jc:trillian.mit.edu>
M: C
L: 1/16
K: D
% - - - - - - - - - - - - - - -
V: 1 staves=2
|:\
(A,3D) TD3E ~D3ED2A,2 |\
(B,2E2) {F}TE3F {F}TG3FE2D2 |\
(F2A2)TA3B T[d3F3]e {de}f3e |\
{e}d3B (ABd).F TE3FE2D2 :|
|:\
(Ad3) Td3e {c}d3ed2A2 |\
(B3e) Te2f2 {ef}g3fe2d2 |\
{d}f3e d2B2 (Ag3) HTf3e |\
{e}d3B (ABd).F TE3FE2HD2 !fine!y:|
|:\
A,(B,DE DA,DE) (FG)(EF) (DE).D.A, |\
(B,DEF) (EB,EF) (AF)(dF) TE3D |\
(DEFG) A3B (AD)FA [d3F3]e |
(fd)(eB) (dA)(BF) (EFG).F E2D2 :|\
|:\
D>d (Tdc/d/) f>d (Tdc/d/) (Dd)fe d2A2 |
(EGB).^d (ed).e.f (ga)(fg) {f}e2=d2 |\
(fd).e.f (dA).B.d (FA)(EF) (AB).d.e |\
f>de>B d>AB>F (EFG).F TE2"^D.C."D2 :|
% - - - - - - - - - - - - - - -
V: 2 clef=bass middle=d
|:\
D4 d4 D4 F4 | G6 F2 E4 A4 |\
d'4 c'4 b4 f4 | g4 f2d2 f4 A2z2 :|
|:\
d4 d'4 d4 f4 | g6 f2 e4 a4 |\
f4 d'4 c'4 Hd'3c' | b2g2 f2d2 a4 A2Hz2 !fine!y:|
|:\
[d4D4] [d4D4] [d4D4] [d4D4] | [e4E4] [e4E4] f2d2 [a4A4] |\
d4 f2g2 f4 b2c'2 | d'2g2 f2d2 a4 A2z2 :|
|:\
f4 d4 d4 f4 | g3f e4 e'2=d'2 a2d'2 |\
d2a2 f2g2 d2A2 [d4D4] | d2g2 f2d2 a4 A2"^D.C."z2 :|
